X:482
T:Lord Elphinston
T:Ca' Hawkie Through the Water
R:Strathspey
B:The Athole Collection
M:C|
L:1/8
Q:1/4=150
K:A Minor
a|g<e e>d c>de>a|g<e e<d c<A A>a|g<e e>d c>de>g|e<a a>^g a<A A:|
B|c2 c>e d2d>e|c2 c>e d>BG>B|c2 c>e d2 d>f|e<a a>^g a<A A>B|
c2 c>e d2 d>e|c2 c>e d>BG>B|c>ec>e d<gd<g|e<a a>^g aAA||

